X:20
T:Cytheria,La. CJF.020
T:La Cytheria. CJF.020
R:Quadrille
C:C Nicholson
S:C.J.Fox MS, 1829/33, Beverley,E.Yorks.
N:In the MS last section, bar 3 is ^(c3A/ce)
N:and bar 11 is d3B/^cc. – PJH.
B:Kidson Coll.Mitchell Lib.M1805
O:England
A:East Yorkshire
Z:vmp.P J Headford 2000 & 2008
M:2/4
L:1/16
Q:1/4=60
K:D
c2″~”c2d2″~”d2|\
f2″~”f2a4|(ag)e2 (gf)d2|c2(gf) edcB|!
c2″~”c2d2″~”d2|f2″~”f2a4|(^gabc’) d’2g2|(b4a2)z2||!
(a^g=gf) (edce)|d2f2 A2(AB)|(cd)ef (ga)bc’|(d’4a2)z2|!
(a^g=gf) (edce)|(^AB)(^de) (fa)(ab)|\
a2aa a2bc’|c’4” Fine”d’2z2|]

